X:1
T:C Major, C minor Samuel Babcock, 1793
T:Isaac Watts, 1707 (Hymn 62, Book 2)        86. 86. (C. M.)
T:Westborough
T:Transcribed from The Columbian Harmony, 1793.
%%score [ 1 2 3 4 ]
L:1/8
Q:1/4=100
M:4/4
K:C
V:1 treble nm="Treble" snm="Tr."
V:2 treble nm="Counter" snm="C."
V:3 treble-8 nm="Tenor" snm="T."
V:4 bass nm="Bass" snm="B."
V:1
 (G4 G>AG>A | G4) c2 B2 | c4 (e2 d2) | (c2 B2 cB) A2 | B6 cB | c4 (d2 e2) | d4 d4 | B6 c2 | c6 d2 | %9
w: Sing~ _ _ _ _|_ to the|Lord, ye *|hea- * * * venly|hosts, And *|thou, O *|earth, a-|dore: Let|death and|
 G6 G2 | (A2 B2) (c2 A2) | B6 c2 | (G2 G2 G2) G2 | (B>cB>c d2) d2 | (c>Bc>d e2) d2 | %15
w: hell through|all * their *|coasts Stand|trem- * * bling,|trem- * * * * bling,|trem- * * * * bling|
 (c2 d2) (e2 fd) | e8 | z8 | z8 | z8 | z4 G4 | (G2 G2 G2) A2 | (B2 B2 c2) B2 | (B>cB>A G2) c2 | %24
w: at * his * *|power.||||His|soun- * * ding|cha- * * riot|shakes * * * * the|
 B6 cB | A2 A2 G2 ef | g6 z2 | z4 z2 e2 | c2 e2 fe d2 | e8 ||[K:Eb] z4 c4 | c6 B2 | c4 ((c2 d2)) | %33
w: sky, He *|makes the clouds his *|throne;|Till|ven- geance darts * them|down.|What|shall the|wretch the *|
 (3((e2 d2 c2)) ((B2 A2)) | G6 BA | G4 ((c2 B2)) | ((c2 e2)) ((d2 c2)) | =B6 B2 | c6 B2 | %39
w: sin- * * ner *|do? He *|once de- *|fied * the *|Lord; But|he shall|
 ((e3 d c2)) B2 | ((c2 e2)) ((d2 c2)) | ((B2 =Ac G2)) G2 | ((c4 B3 A | G6)) c2 | ((d2 e2)) d4 | %45
w: dread~ _ _ the|Thun- * derer *|now,~ _ _ _ And|sink~ _ _|_ be-|neath * his|
 c8 |] %46
w: word.|
V:2
 (E4 E>FE>F | E4) G2 G2 | G4 A4 | (G2 A2) G4 | G6 G2 | G4 G4 | F4 D4 | D6 E2 | E6 D2 | (E4 F2) G2 | %10
w: ||||||||||
 F4 E4 | D6 G2 | (E>FE>D E2) E2 | (G2 G2 G2) G2 | (G>FG>A G2) A2 | (G2 A2) G4 | G8 | z8 | z8 | z8 | %20
w: ||||||||||
 z8 | z8 | z8 | z8 | z8 | z4 z2 E2 | C2 E2 G2 G2 | A2 A2 A2 GA | G2 G2 A2 G2 | G8 ||[K:Eb] z4 G4 | %31
w: |||||There|all his stores of|light- ning lie, * *||||
 G6 F2 | G4 ((G2 A2)) | G4 ((F2 E2)) | D6 D2 | ((E2 F2)) ((G2 F2)) | G4 (3((F2 G2 A2)) | G6 G2 | %38
w: |||||||
 G6 F2 | G6 F2 | E4 ((F2 G2)) | G6 G2 | ((G4 F4 | E6)) G2 | A4 G4 | G8 |] %46
w: ||||||||
V:3
 (c4 c2 G2 | c4) c2 d2 | e4 (e2 f2) | (g2 f2 ed) c2 | d6 cd | e4 (d2 c2) | B4 A4 | G6 G2 | c6 B2 | %9
w: Sing~ _ _|_ to the|Lord, ye *|hea- * * * venly|hosts, And *|thou, O *|earth, a-|dore: Let|death and|
 (c4 d2) e2 | (f2 d2) (e2 c2) | (B2 dB G2) G2 | (c>dc>B c2) c2 | (d>ed>c B2) G2 | (e>de>f g2) f2 | %15
w: hell * through|all * their *|coases * * * Stand|trem- * * * * bling,|trem- * * * * bling,|trem- * * * * bling|
 (e2 d2) (c2 Bd) | c8 | z8 | z8 | z4 G4 | (c>dc>B c2) c2 | (d2 d>e d2) d2 | (e>fe>f g2) ^f2 | %23
w: at * his * *|power.|||His|soun- * * * * ding|cha- * * * riot|shakes * * * * the|
 g6 c2 | e2 de f2 e2 | d6 c2 | e2 e2 e2 de | f2 e2 d2 cd | e2 c2 dc B2 | c8 ||[K:Eb] z4 c4 | %31
w: sky. He|makes the * clouds his|throne; There|all his stores of *|light- ning lie, Till *|ven- geance darts * them|down.|What|
 e6 d2 | e4 ((g2 f2)) | e4 ((d2 c2)) | B6 G2 | ((c2 B2)) ((c2 d2)) | e4 ((f2 e2)) | d6 d2 | e6 d2 | %39
w: shall the|wretch the *|sin- ner *|do? He|once * de- *|fied the *|Lord; But|he shall|
 c6 d2 | g4 ((f2 e2)) | d6 d2 | ((e2 c>e d2 B2 | G2 c>B c2)) e2 | ((d2 c2)) =B4 | c8 |] %46
w: dread the|Thun- derer *|now, And|sink~ _ _ _ _|_ _ _ _ be-|neath * his|word.|
V:4
 C,8- | C,4 C,2 G,2 | C4 (A,2 F,2) | (E,2 D,2) C,4 | G,6 G,2 | A,,4 (G,,2 A,,2) | B,,4 B,,4 | %7
w: |||||||
 G,,6 C,2 | C,6 G,2 | (E,4 D,2) C,2 | D,4 (E,2 F,2) | G,6 C,2 | (C,>B,,C,>D, C,2) C,2 | %13
w: ||||||
 (G,2 G,2 G,2) G,2 | (C,2 C,2 C,2) D,2 | (E,2 F,2) G,4 | C,8 | z4 G,4 | (C>DC>B, A,2) F,2 | %19
w: ||||His|soun- * * * * ding|
 (G,>A,G,>F, E,2) C,2 | (C,>B,,C,>D, C,2) C,2 | G,6 F,2 | E,2 E,>D, C,2 D,2 | G,4 F,4 | %24
w: cha- * * * * riot|shakes * * * * the|sky, He|makes the * clouds his|throne; There|
 E,2 F,E, D,2 C,2 | D,2 D,2 G,2 F,2 | E,2 E,2 C,2 F,E, | D,6 E,D, | C,2 C,2 F,2 G,2 | C,8 || %30
w: all his * stores of|light- ning lie, Till|ven- geance darts them *|down, * *|||
[K:Eb] z4 C,4 | C,6 G,,2 | C,4 ((E,2 D,2)) | C,4 D,4 | G,,6 G,,2 | ((C,2 D,2)) ((E,2 D,2)) | %36
w: ||||||
 C,4 D,4 | G,6 G,2 | C,6 D,2 | E,6 D,2 | C,4 ((B,,2 C,2)) | G,6 G,2 | ((C,4 G,,4 | C,6)) C,2 | %44
w: ||||||||
 F,4 G,4 | C,8 |] %46
w: ||

